X:1
T:大提琴练习曲_Book1_P6_No.12
T:大提琴练习曲_Book1_P7_No.12
%%score 1 2
L:1/8
Q:1/4=80
M:4/4
K:G
V:1 bass nm="Piano" snm="Pno."
V:2 bass nm="大提琴" snm="Vc."
V:1
 z8 | C,,2 C,,2 C,,2 C,,2 | G,2 D,4 F,2 | G,2 D,4 F,2 | G,2 B,4 D2 | D2 A,4 B,2 | C2 G,4 A,2 | %7
 B,2 G,4 D,2 | E,2 A,4 G,2 | F,2 E,2 D,2 z2 | A,2 D4 F,2 | A,2 G,4 E,2 | ^C,2 E,4 G,,2 | %13
 F,,2 A,,4 D,2 | A,2 D4 F,2 | A,2 G,4"^大把位" E,2 | G,2 B,,4 ^C,2 | D,2 E,4 F,2 | G,2 D,4 F,2 | %19
 G,2 D,4 F,2 | G,2 B,4 D2 | D2 A,4 B,2 | C2 G,4 A,2 | B,2 G,4 D,2 | E,2 A,4 F,2 | G,6 z2 |] %26
V:2
 z8 | C,,2 C,,2 C,,2 C,,2 |!mf! vG,2 D,4 F,2 | uG,2 D,4 F,2 | G,2 B,4 D2 | D2 A,4 B,2 | %6
 C2 G,4 A,2 | B,2 G,4 D,2 | E,2 A,4 G,2 | F,2 E,2 D,2 z2 | A,2 D4 F,2 | A,2 G,4"^大把位" E,2 | %12
 !4!^C,2 E,4 G,,2 | F,,2 A,,4 D,2 | A,2 D4 F,2 | A,2 G,4 !1!E,2 | !3!G,2 !2!B,,4 !4!^C,2 | %17
 !0!D,2 !1!E,4 !3!F,2 |!mf! !4!G,2 D,4 F,2 | G,2 D,4 F,2 | G,2 B,4 D2 | D2 A,4 B,2 | C2 G,4 A,2 | %23
 B,2 G,4 D,2 | E,2 A,4 F,2 | G,6 z2 |] %26

